static/img/kroki/2a4492231d82e670bf117fdc859728e0.svg

<?xml version="1.0" encoding="us-ascii" standalone="no"?><svg xmlns="http://www.w3.org/2000/svg" xmlns:xlink="http://www.w3.org/1999/xlink" contentStyleType="text/css" height="252px" preserveAspectRatio="none" style="width:297px;height:252px;" version="1.1" viewBox="0 0 297 252" width="297px" zoomAndPan="magnify"><defs/><g><!--class azure_web_app--><g id="elem_azure_web_app"><rect codeLine="23" fill="#3D176E" height="39.7891" id="azure_web_app" rx="2.5" ry="2.5" style="stroke:#000D19;stroke-width:0.5;" width="171" x="63" y="7"/><ellipse cx="78" cy="26.8945" fill="#ADD1B2" rx="11" ry="11" style="stroke:#181818;stroke-width:1.0;"/><path d="M80.9688,32.5352 Q80.3906,32.832 79.75,32.9727 Q79.1094,33.1289 78.4063,33.1289 Q75.9063,33.1289 74.5781,31.4883 Q73.2656,29.832 73.2656,26.707 Q73.2656,23.582 74.5781,21.9258 Q75.9063,20.2695 78.4063,20.2695 Q79.1094,20.2695 79.75,20.4258 Q80.4063,20.582 80.9688,20.8789 L80.9688,23.5977 Q80.3438,23.0195 79.75,22.7539 Q79.1563,22.4727 78.5313,22.4727 Q77.1875,22.4727 76.5,23.5508 Q75.8125,24.6133 75.8125,26.707 Q75.8125,28.8008 76.5,29.8789 Q77.1875,30.9414 78.5313,30.9414 Q79.1563,30.9414 79.75,30.6758 Q80.3438,30.3945 80.9688,29.8164 L80.9688,32.5352 Z " fill="#000000"/><text fill="#D9B8FF" font-family="Helvetica" font-size="17" lengthAdjust="spacing" textLength="129" x="97" y="32.7798">azure_web_app</text></g><!--class azure_web_app_service_plan--><g id="elem_azure_web_app_service_plan"><rect codeLine="26" fill="#3D176E" height="39.7891" id="azure_web_app_service_plan" rx="2.5" ry="2.5" style="stroke:#000D19;stroke-width:0.5;" width="283" x="7" y="106.79"/><ellipse cx="22" cy="126.6845" fill="#ADD1B2" rx="11" ry="11" style="stroke:#181818;stroke-width:1.0;"/><path d="M24.9688,132.3252 Q24.3906,132.622 23.75,132.7627 Q23.1094,132.9189 22.4063,132.9189 Q19.9063,132.9189 18.5781,131.2783 Q17.2656,129.622 17.2656,126.497 Q17.2656,123.372 18.5781,121.7158 Q19.9063,120.0595 22.4063,120.0595 Q23.1094,120.0595 23.75,120.2158 Q24.4063,120.372 24.9688,120.6689 L24.9688,123.3877 Q24.3438,122.8095 23.75,122.5439 Q23.1563,122.2627 22.5313,122.2627 Q21.1875,122.2627 20.5,123.3408 Q19.8125,124.4033 19.8125,126.497 Q19.8125,128.5908 20.5,129.6689 Q21.1875,130.7314 22.5313,130.7314 Q23.1563,130.7314 23.75,130.4658 Q24.3438,130.1845 24.9688,129.6064 L24.9688,132.3252 Z " fill="#000000"/><text fill="#D9B8FF" font-family="Helvetica" font-size="17" lengthAdjust="spacing" textLength="241" x="41" y="132.5698">azure_web_app_service_plan</text></g><!--class azure_web_certificate--><g id="elem_azure_web_certificate"><rect codeLine="29" fill="#3D176E" height="39.7891" id="azure_web_certificate" rx="2.5" ry="2.5" style="stroke:#000D19;stroke-width:0.5;" width="224" x="36.5" y="206.58"/><ellipse cx="51.5" cy="226.4745" fill="#ADD1B2" rx="11" ry="11" style="stroke:#181818;stroke-width:1.0;"/><path d="M54.4688,232.1152 Q53.8906,232.412 53.25,232.5527 Q52.6094,232.7089 51.9063,232.7089 Q49.4063,232.7089 48.0781,231.0683 Q46.7656,229.412 46.7656,226.287 Q46.7656,223.162 48.0781,221.5058 Q49.4063,219.8495 51.9063,219.8495 Q52.6094,219.8495 53.25,220.0058 Q53.9063,220.162 54.4688,220.4589 L54.4688,223.1777 Q53.8438,222.5995 53.25,222.3339 Q52.6563,222.0527 52.0313,222.0527 Q50.6875,222.0527 50,223.1308 Q49.3125,224.1933 49.3125,226.287 Q49.3125,228.3808 50,229.4589 Q50.6875,230.5214 52.0313,230.5214 Q52.6563,230.5214 53.25,230.2558 Q53.8438,229.9745 54.4688,229.3964 L54.4688,232.1152 Z " fill="#000000"/><text fill="#D9B8FF" font-family="Helvetica" font-size="17" lengthAdjust="spacing" textLength="182" x="70.5" y="232.3598">azure_web_certificate</text></g><!--link azure_web_app to azure_web_app_service_plan--><g id="link_azure_web_app_azure_web_app_service_plan"><path codeLine="32" d="M148.5,47.22 C148.5,64.36 148.5,83.27 148.5,100.41 " fill="none" id="azure_web_app-to-azure_web_app_service_plan" style="stroke:#1A83AF;stroke-width:2.0;"/><polygon fill="#1A83AF" points="148.5,106.41,152.5,97.41,148.5,101.41,144.5,97.41,148.5,106.41" style="stroke:#1A83AF;stroke-width:2.0;"/></g><!--link azure_web_app_service_plan to azure_web_certificate--><g id="link_azure_web_app_service_plan_azure_web_certificate"><path codeLine="33" d="M148.5,147.01 C148.5,164.15 148.5,183.06 148.5,200.2 " fill="none" id="azure_web_app_service_plan-to-azure_web_certificate" style="stroke:#1A83AF;stroke-width:2.0;"/><polygon fill="#1A83AF" points="148.5,206.2,152.5,197.2,148.5,201.2,144.5,197.2,148.5,206.2" style="stroke:#1A83AF;stroke-width:2.0;"/></g><!--SRC=[XP1DQy9048Rl-HKBdWLJQHClXIX8Uv5IUoibJBApkfZiXjc9GKl_UxMsPKqqNkTzU3zchIKAB2lUYHBB3Ca5RgDD1GIbI8XiCxE59J5G2jGuQejpQ_Wci80InHCMMsITGvjuM-jyOz0vSUT9KyWtAxAraITx9Z3k8A5XZveLu5p2J3gh6RqoSfB5IhN9jkbWBCFe0JkO9OdqYun68nbEsiZDgDxT_yHIxr64_jCMbh5JinFnG_MsF19UoSxGF_rgnnUGKfkLkFTkhwTEP93ExiirIDiSQGM5ysCS8w7bNOMppYgSn5955-7dQt2G7rydO5yJfWrcALIL-0o2hqj2wf2sEiUqAi1Sfd8arkgmdF44d3iFtmTX4e-J-SVmiSSxw8czOk451zy0]--></g></svg>

<svg xmlns="http://www.w3.org/2000/svg" width="297" height="252" viewBox="0 0 297 252"><rect width="171" height="39.789" x="63" y="7" fill="#3D176E" rx="2.5" ry="2.5" style="stroke:#000d19;stroke-width:.5"/><circle cx="78" cy="26.895" r="11" fill="#ADD1B2" style="stroke:#181818;stroke-width:1"/><path d="M80.969 32.535q-.578.297-1.219.438-.64.156-1.344.156-2.5 0-3.828-1.64-1.312-1.657-1.312-4.782t1.312-4.781q1.328-1.656 3.828-1.656.703 0 1.344.156.656.156 1.219.453v2.719q-.625-.578-1.219-.844-.594-.281-1.219-.281-1.344 0-2.031 1.078-.687 1.062-.687 3.156t.687 3.172q.688 1.062 2.031 1.062.625 0 1.219-.265.594-.281 1.219-.86z"/><text x="97" y="32.78" fill="#D9B8FF" font-family="Helvetica" font-size="17" textLength="129">azure_web_app</text><rect width="283" height="39.789" x="7" y="106.79" fill="#3D176E" rx="2.5" ry="2.5" style="stroke:#000d19;stroke-width:.5"/><circle cx="22" cy="126.684" r="11" fill="#ADD1B2" style="stroke:#181818;stroke-width:1"/><path d="M24.969 132.325q-.578.297-1.219.438-.64.156-1.344.156-2.5 0-3.828-1.64-1.312-1.657-1.312-4.782t1.312-4.781q1.328-1.656 3.828-1.656.703 0 1.344.156.656.156 1.219.453v2.719q-.625-.579-1.219-.844-.594-.281-1.219-.281-1.343 0-2.031 1.078-.687 1.062-.687 3.156t.687 3.172q.688 1.062 2.031 1.062.625 0 1.219-.265.594-.281 1.219-.86z"/><text x="41" y="132.57" fill="#D9B8FF" font-family="Helvetica" font-size="17" textLength="241">azure_web_app_service_plan</text><rect width="224" height="39.789" x="36.5" y="206.58" fill="#3D176E" rx="2.5" ry="2.5" style="stroke:#000d19;stroke-width:.5"/><circle cx="51.5" cy="226.475" r="11" fill="#ADD1B2" style="stroke:#181818;stroke-width:1"/><path d="M54.469 232.115q-.578.297-1.219.438-.64.156-1.344.156-2.5 0-3.828-1.64-1.312-1.657-1.312-4.782t1.312-4.781q1.328-1.656 3.828-1.656.703 0 1.344.156.656.156 1.219.453v2.719q-.625-.578-1.219-.844-.594-.281-1.219-.281-1.343 0-2.031 1.078-.687 1.062-.687 3.156t.687 3.172q.688 1.062 2.031 1.062.625 0 1.219-.265.594-.281 1.219-.86z"/><text x="70.5" y="232.36" fill="#D9B8FF" font-family="Helvetica" font-size="17" textLength="182">azure_web_certificate</text><path fill="none" d="M148.5 47.22v53.19" style="stroke:#1a83af;stroke-width:2"/><path fill="#1A83AF" d="m148.5 106.41 4-9-4 4-4-4z" style="stroke:#1a83af;stroke-width:2"/><path fill="none" d="M148.5 147.01v53.19" style="stroke:#1a83af;stroke-width:2"/><path fill="#1A83AF" d="m148.5 206.2 4-9-4 4-4-4z" style="stroke:#1a83af;stroke-width:2"/></svg>
